contributed-vectors/pastello_you.svg

<?xml version="1.0" encoding="UTF-8" standalone="no"?>
<svg
   xmlns:dc="http://purl.org/dc/elements/1.1/"
   xmlns:cc="http://creativecommons.org/ns#"
   xmlns:rdf="http://www.w3.org/1999/02/22-rdf-syntax-ns#"
   xmlns:svg="http://www.w3.org/2000/svg"
   xmlns="http://www.w3.org/2000/svg"
   xmlns:sodipodi="http://sodipodi.sourceforge.net/DTD/sodipodi-0.dtd"
   xmlns:inkscape="http://www.inkscape.org/namespaces/inkscape"
   viewBox="0 0 192 192"
   version="1.1"
   id="svg16"
   sodipodi:docname="pastello_you.svg"
   inkscape:version="0.92.4 (5da689c313, 2019-01-14)">
  <metadata
     id="metadata20">
    <rdf:RDF>
      <cc:Work
         rdf:about="">
        <dc:format>image/svg+xml</dc:format>
        <dc:type
           rdf:resource="http://purl.org/dc/dcmitype/StillImage" />
        <dc:title></dc:title>
      </cc:Work>
    </rdf:RDF>
  </metadata>
  <sodipodi:namedview
     pagecolor="#ffffff"
     bordercolor="#666666"
     borderopacity="1"
     objecttolerance="10"
     gridtolerance="10"
     guidetolerance="10"
     inkscape:pageopacity="0"
     inkscape:pageshadow="2"
     inkscape:window-width="1920"
     inkscape:window-height="1017"
     id="namedview18"
     showgrid="true"
     inkscape:zoom="1.7383042"
     inkscape:cx="114.91525"
     inkscape:cy="129.58721"
     inkscape:window-x="-8"
     inkscape:window-y="-8"
     inkscape:window-maximized="1"
     inkscape:current-layer="svg16"
     inkscape:snap-global="false">
    <inkscape:grid
       type="xygrid"
       id="grid827"
       spacingx="4"
       spacingy="4" />
  </sodipodi:namedview>
  <defs
     id="defs4">
    <style
       id="style2">.a{fill:none;stroke:#b1b5bd;stroke-linecap:round;stroke-linejoin:round;isolation:isolate;opacity:0.63;}</style>
    <style
       id="style2-8">.a{fill:none;stroke:#b1b5bd;stroke-linecap:round;stroke-linejoin:round;isolation:isolate;opacity:0.63;}</style>
  </defs>
  <circle
     class="a"
     cx="96"
     cy="96"
     r="88"
     id="circle8"
     style="fill:#8c72bd;stroke:none;opacity:1" />
  <rect
     style="opacity:1;vector-effect:none;fill:#ffffff;fill-opacity:1;fill-rule:evenodd;stroke:none;stroke-linecap:round;stroke-linejoin:round;paint-order:stroke fill markers"
     id="rect854"
     width="48"
     height="48"
     x="72"
     y="48"
     ry="24" />
  <path
     style="fill:#fcecdc;stroke:#fcecdc;stroke-width:8;stroke-linecap:round;stroke-linejoin:round;stroke-opacity:1;stroke-miterlimit:4;stroke-dasharray:none"
     d="m 76,88 20,52 20,-52 z"
     id="path858"
     inkscape:connector-curvature="0" />
  <path
     style="opacity:1;vector-effect:none;fill:#ffd6d4;fill-opacity:1;fill-rule:evenodd;stroke:none;stroke-width:8;stroke-linecap:round;stroke-linejoin:round;stroke-miterlimit:4;stroke-dasharray:none;paint-order:stroke fill markers"
     d="M 76 84 C 73.729894 84.000971 72.033257 85.843048 72 87.933594 L 72 87.998047 C 72.00024 88.471441 72.083595 88.956841 72.267578 89.435547 L 74.792969 96 L 117.20703 96 L 119.73242 89.435547 C 119.91641 88.956841 119.99976 88.471441 120 87.998047 L 120 87.933594 C 119.96674 85.843045 118.2701 84.000957 116 84 L 76 84 z "
     id="rect860" />
  <rect
     style="opacity:1;vector-effect:none;fill:#ffffff;fill-opacity:1;fill-rule:evenodd;stroke:none;stroke-linecap:round;stroke-linejoin:round;paint-order:stroke fill markers"
     id="rect856"
     width="56"
     height="12"
     x="68"
     y="80"
     ry="5.6404543" />
  <path
     style="fill:#ff837d"
     d="M 96 48 C 88.263073 48 81.408638 51.628759 77.025391 57.279297 C 77.565097 57.889321 78.230204 58.539364 78.814453 58.779297 C 80.821309 59.603448 83.315668 58.300993 85.322266 58.779297 C 86.997486 59.178612 88.232245 60.663906 88.373047 62.949219 C 88.559136 65.969568 85.332491 70.529801 90.40625 71.796875 C 94.168329 72.736382 95.704888 68.05301 96.40625 61.830078 C 96.699533 59.22788 100.05816 55.67048 102.74609 55.669922 C 106.87334 55.669066 106.42152 63.649266 112.47461 63.865234 C 114.06763 63.922072 115.9708 63.000875 117.74805 61.8125 C 113.92952 53.63843 105.64892 48 96 48 z "
     id="path880" />
</svg>

<svg xmlns="http://www.w3.org/2000/svg" viewBox="0 0 192 192"><circle cx="96" cy="96" r="88" style="fill:#8c72bd;stroke:none;opacity:1;stroke-linecap:round;stroke-linejoin:round;isolation:isolate"/><rect width="48" height="48" x="72" y="48" ry="24" style="opacity:1;vector-effect:none;fill:#fff;fill-opacity:1;fill-rule:evenodd;stroke:none;stroke-linecap:round;stroke-linejoin:round;paint-order:stroke fill markers"/><path d="m76 88 20 52 20-52z" style="fill:#fcecdc;stroke:#fcecdc;stroke-width:8;stroke-linecap:round;stroke-linejoin:round;stroke-opacity:1;stroke-miterlimit:4;stroke-dasharray:none"/><path d="M76 84c-2.27.001-3.967 1.843-4 3.934v.064c0 .473.084.959.268 1.438L74.793 96h42.414l2.525-6.564c.184-.48.268-.965.268-1.438v-.064c-.033-2.091-1.73-3.933-4-3.934H76z" style="opacity:1;vector-effect:none;fill:#ffd6d4;fill-opacity:1;fill-rule:evenodd;stroke:none;stroke-width:8;stroke-linecap:round;stroke-linejoin:round;stroke-miterlimit:4;stroke-dasharray:none;paint-order:stroke fill markers"/><rect width="56" height="12" x="68" y="80" ry="5.64" style="opacity:1;vector-effect:none;fill:#fff;fill-opacity:1;fill-rule:evenodd;stroke:none;stroke-linecap:round;stroke-linejoin:round;paint-order:stroke fill markers"/><path d="M96 48a23.927 23.927 0 0 0-18.975 9.28c.54.61 1.205 1.26 1.79 1.5 2.006.823 4.5-.479 6.507 0 1.675.399 2.91 1.884 3.051 4.17.186 3.02-3.04 7.58 2.033 8.847 3.762.94 5.299-3.744 6-9.967.294-2.602 3.652-6.16 6.34-6.16 4.127 0 3.676 7.98 9.729 8.195 1.593.057 3.496-.864 5.273-2.053A23.944 23.944 0 0 0 96 48z" style="fill:#ff837d"/></svg>
